X:1
T:Title
T:Étude op. 30 no 12
T:Joachim Andersen
C:Composer
L:1/8
Q:1/4=116
M:4/4
K:B
V:1 treble nm="Piano" snm="Pno."
V:1
"^Allegro ma non troppo"!mf!"_energico" (G/c/B) (B/e/d) (d/a/g) (g/c'/b) | %1
 (^^c/b/a) (A/g/^^f) (B/a/g) (d/c'/b) | (^^f/e'/d') (!>!A/e/d) (g/e'/d') (!>!B/e/d) | %3
 (g/c'/b) (B/a/g) (A/g/^^f) (^^F/e/d) | (G/c/B) (B/e/d) (d/a/g) (g/c'/b) | %5
 (^^c/b/a) (A/g/^^f) (B/a/g) (d/c'/b) | (g/e'/d') (!>!B/a/g) (=a/f'/e') (!>!c/b/a) | %7
 (^^f/e'/d') (A/g/f) (B/a/g) (^^F/A/G) || (^^F/e/d) (A/g/^^f) (G/d/^^c) (B/a/g) | %9
 (^^F/e/d) (A/g/^^f) (G/^f/e) (B/a/g) | (c/b/a) (B/a/g) (A/g/^^f) (G/^f/e) | %11
 (^^F/e/d) (E/d/^^c) (D/e/d) (A/E/D) | (^^F/e/d) (A/g/^^f) (G/d/^^c) (B/a/g) | %13
 (^^F/e/d) (A/g/^^f) (G/^f/e) (B/a/g) | (^^F/e/d) (G/f/e) (^^G/^^f/^e) (A/g/f) | %15
 (B/a/g) (c/b/a) (^^c/c'/b) (d/b/a) || (G/c/B) (B/e/d) (d/a/g) (g/c'/b) | %17
 (^^c/b/a) (A/g/^^f) (B/a/g) (d/c'/b) | (^^f/e'/d') (!>!A/e/d) (g/e'/d') (!>!B/e/d) | %19
 (g/c'/b) (B/a/g) (A/g/^^f) (^^F/e/d) | (G/c/B) (B/e/d) (d/a/g) (g/c'/b) | %21
 (^^c/b/a) (A/g/^^f) (B/a/g) (d/c'/b) | (g/e'/d') (!>!B/a/g) (=a/f'/e') (!>!c/b/a) | %23
 (^^f/e'/d') (A/g/f) (B/a/g) Gz/!p!g/ ||[K:E]"_con gusto" (Pf/e/).B/.G/ .E/.G/.B/.e/ .g2 (e/c'/b) | %25
 Pa.=c/.a/!<(! Pg.B/.g/ (f/e/).^c/.^A/ .c/.e/.f/.d'/!<)! | %26
!>(! (Pc'/b/).a/.f/ .d/.B/.^A/.=A/!>)! G2 (e/c'/b) | (G/B/T^A) (^e/g/Tf) (A/c/(TB{AB))} bz/g/ | %28
 (Pf/e/).B/.G/ .E/.G/.B/.e/ .g2 (e/c'/b) | %29
 Pa.=c/.a/ Pg.B/.g/!<(! (f/e/).^c/.^A/ .c/.e/.f/.d'/!<)! | %30
 (Pc'/b/).a/.f/"_cresc." .d/.f/.^a/.b/ (c'/b/).G/.B/ .e/.g/.b/.e'/ | %31
!f! g'>!p!.^A .B/.d/.f/.b/ (Pf/e/).B/.G/ Ez/^^F/ || %32
 .G/.B/.d/.g/ Pb.d/.d'/ Pc'.e/.c'/ bz/!mf!.^^F/ | %33
 .G/.D/.G/.B/ .^^c/.d/.^e/.^^f/ .g2{/B=e} dz/!p!.^^F/ | %34
 .G/.B/.d/.g/ Pb.d/.d'/ Pc'.e/.c'/ bz/!mf!.^E/ | %35
 .F/.B/.d/.f/ .^^f/.g/.^^g/.^a/ .b2{/^Ac} Bz/!p!.^^F/ | %36
 .G/.B/.d/.g/ Pb.d/.d'/ Pc'.e/.c'/ .bz/!mf!.^^F/ | %37
 .G/.D/.G/.B/ .^^c/.d/.^e/.^^f/ .g2{/B=e} dz/!p!.^^F/ | %38
 .G/.B/.d/.g/ Pb.d/.d'/ Pc'.e/.c'/ bz/!mf!.^E/ | %39
 .F/.B/.d/.f/ .^^f/.g/.^^g/.^a/ .b2{/^Ac} Bz/!p!^g/ || (Pf/e/).B/.G/ .E/.G/.B/.e/ .g2 (e/c'/b) | %41
 Pa.=c/.a/ Pg.B/.g/!<(! (f/e/).^c/.^A/ .c/.e/.f/.d'/!<)! | %42
 (Pc'/b/).a/.f/ .d/.B/.^A/.=A/ .G2 (e/c'/b) | (^^G/B/T^A) (^e/g/Tf) (A/c/(TB{AB)} b)z/g/ | %44
 (Pf/e/).B/.G/ .E/.G/.B/.e/ .g2 (e/c'/b) | Pa.=c/.a/ Pg.B/.g/ f/e/.^c/.^A/ .c/.e/.f/.d'/ | %46
 (Pc'/b/).a/.f/ .d/"_cresc.".f/.^a/.b/ (c'/b/).G/.B/ .e/.g/.b/.e'/ | %47
!f! g'>.^A .B/.d/.f/.b/ (Pf/e/).B/.G/ E z ||[K:B]!mf! (G/c/B) (B/e/d) (d/a/g) (g/c'/b) | %49
 (^^c/b/a) (A/g/^^f) (B/a/g) (d/c'/b) | (^^f/e'/d') (!>!A/e/d) (g/e'/d') (!>!B/e/d) | %51
 (g/c'/b) (B/a/g) (A/g/^^f) (^^F/e/d) | (G/c/B) (B/e/d) (d/a/g) (g/c'/b) | %53
 (^^c/b/a) (A/g/^^f) (B/a/g) (d/c'/b) | (g/e'/d') (!>!B/a/g) (=a/f'/e') (!>!c/b/a) | %55
 (^^f/e'/d') (A/g/f) (B/a/g) (^^F/A/G) || (^^F/e/d) (A/g/^^f) (G/d/^^c) (B/a/g) | %57
 (^^F/e/d) (A/g/^^f) (G/^f/e) (B/a/g) | (c/b/a) (B/a/g) (A/g/^^f) (G/^f/e) | %59
 (^^F/e/d) (E/d/^^c) (D/e/d) (A/E/D) | (^^F/e/d) (A/g/^^f) (G/d/^^c) (B/a/g) | %61
 (^^F/e/d) (A/g/^^f) (G/^f/e) (B/a/g) | (^^F/e/d) (G/f/e) (^^G/^^f/^e) (A/g/f) | %63
 (B/a/g) (c/b/a) (^^c/c'/b) (d/b/a) || (G/c/B) (B/e/d) (d/a/g) (g/c'/b) | %65
 (^^c/b/a) (A/g/^^f) (B/a/g) (d/c'/b) | (^^f/e'/d') (!>!A/e/d) (g/e'/d') (!>!B/e/d) | %67
 (g/c'/b) (B/a/g) (A/g/^^f) (^^F/e/d) | (G/c/B) (B/e/d) (d/a/g) (g/c'/b) | %69
 (^^c/b/a) (A/g/^^f) (B/a/g) (d/c'/b) | (g/e'/d') (!>!B/a/g) (=a/f'/e') (!>!c/b/a) | %71
!<(! (^^f/e'/d') (A/g/f) (B/!<)!a/g)!f! G z |] %72

